X:7
T:Jock o' the Syde
Z:Jack Campin, http://www.campin.me.uk/
S:Northumbrian Minstrelsy
M:6/8
L:1/8
K:A Minor
E    |A2  A  G2   E|c c c  B2
B/ B/|A A A  c c  c|B2  A (Bd)
d    |d d d  d2   A|c2  c  c2
B    |A A A (A`G) E|E G G (GA)
B    |A A A (A`G) E|c c A (BA)|]

